X:84
T: SCHOENSTER SCHATZ MEIN AUGENTROST
N: E0692
O: Europa, Mitteleuropa, Deutschland, Rheingau, Niederwald; Lahn - Tal
R: Liebes - Lied, Leid, Klage
M: 3/4
L: 1/16
K: F
C2 | F3FF6G2 | A3AA6
A2 | G2A2B4G4 | B4A4z2
c2 | c2A2d6c2 | c2B2B6
cB | A2A2c6A2 | A2G2G4z2
AG | F2d2c4A4 | G4F4z2

@@@ Tune index: 4397
